svg/emoji_u1f523.svg

<?xml version="1.0" encoding="utf-8" standalone="no"?>
<svg xmlns:dc="http://purl.org/dc/elements/1.1/" xmlns:cc="http://creativecommons.org/ns#" xmlns:rdf="http://www.w3.org/1999/02/22-rdf-syntax-ns#" xmlns:svg="http://www.w3.org/2000/svg" xmlns="http://www.w3.org/2000/svg" xmlns:sodipodi="http://sodipodi.sourceforge.net/DTD/sodipodi-0.dtd" xmlns:inkscape="http://www.inkscape.org/namespaces/inkscape" width="128" height="128" style="enable-background:new 0 0 128 128;" version="1.1" id="svg28" inkscape:version="0.92.3 (2405546, 2018-03-11)">
  <metadata id="metadata34">
    
  </metadata>
  <defs id="defs32"/>
  
  <path style="opacity:1;fill:#3e99ff;fill-opacity:1;stroke:none;stroke-width:1;stroke-linecap:butt;stroke-linejoin:miter;stroke-miterlimit:4;stroke-dasharray:none;stroke-dashoffset:0;stroke-opacity:1;" d="M 7.4,0 C 26.266667,0 44.55806,0.958789 63.424727,0.958789 82.291393,0.958789 101.73333,0 120.6,0 c 4.0996,0 7.4,3.3004 7.4,7.4 0,18.866667 -0.57527,30.446538 -0.57527,49.313205 0,18.866667 0.57527,45.020125 0.57527,63.886795 0,4.0996 -3.3004,7.4 -7.4,7.4 -18.86667,0 -35.240482,-1.91758 -54.107149,-1.91758 C 47.626184,126.08242 26.266667,128 7.4,128 3.3004,128 0,124.6996 0,120.6 0,101.73333 0.958789,81.907878 0.958789,63.041211 0.958789,44.174545 0,26.266667 0,7.4 0,3.3004 3.3004,0 7.4,0 Z" id="rect840"/>
  <path style="fill:#2089ff;fill-opacity:1;stroke:none;stroke-width:1px;stroke-linecap:butt;stroke-linejoin:miter;stroke-opacity:1" d="M 126.01367,2.355469 C 88.072971,47.261678 32.924164,78.603781 1.742187,125.37305 3.097531,126.97965 5.124311,128 7.400391,128 c 18.866667,0 40.22513,-1.91797 59.091797,-1.91797 18.866666,0 35.240752,1.91797 54.107422,1.91797 4.0996,0 7.40039,-3.30079 7.40039,-7.40039 0,-18.86667 -0.57617,-45.020052 -0.57617,-63.886719 0,-18.866667 0.57617,-30.445833 0.57617,-49.3125 0,-1.955407 -0.75603,-3.724575 -1.98633,-5.044922 z" id="path855"/>
  <path style="fill:#ffffff" d="M 10.890625 11.509766 C 10.480625 11.509766 10.150391 11.840234 10.150391 12.240234 L 10.150391 20.830078 C 10.150391 21.230078 10.490625 21.550781 10.890625 21.550781 L 53.259766 21.550781 C 53.669766 21.550781 53.990234 21.230078 53.990234 20.830078 L 54 20.830078 L 54 12.240234 C 54 11.830234 53.669531 11.509766 53.269531 11.509766 L 10.890625 11.509766 z M 10.890625 28.849609 C 10.480625 28.849609 10.150391 29.180078 10.150391 29.580078 L 10.150391 38.169922 C 10.150391 38.579922 10.490625 38.900391 10.890625 38.900391 L 26.720703 38.900391 L 26.720703 55.939453 C 26.720703 56.349453 27.049219 56.669922 27.449219 56.669922 L 36.710938 56.669922 C 37.110938 56.669922 37.439453 56.339453 37.439453 55.939453 L 37.439453 38.900391 L 53.259766 38.900391 C 53.669766 38.900391 53.990234 38.569922 53.990234 38.169922 L 54 38.169922 L 54 29.580078 C 54 29.170078 53.669531 28.849609 53.269531 28.849609 L 10.890625 28.849609 z " id="rect2"/>
  <path style="fill:#ffffff;stroke-width:0.93700778" d="m 104.6307,77.105932 -0.49595,0.261704 -9.586029,14.655387 c 0.02811,-0.318583 0.08418,-0.618425 0.08418,-0.937008 0,-6.03433 -4.319606,-10.916507 -11.244094,-10.916507 -6.915117,0 -11.244093,4.882177 -11.244093,10.916507 0,6.02496 4.328976,10.907355 11.244093,10.907355 2.089528,0 3.898026,-0.48687 5.462829,-1.26459 l -10.343687,15.80651 -0.02928,0.60027 0.516086,0.30929 h 10.916507 l 0.495956,-0.27268 7.609527,-11.87182 c 0,0.0937 -0.02928,0.17898 -0.02928,0.27268 0,6.03433 4.328755,10.91468 11.253245,10.91468 6.91511,0 11.24387,-4.88079 11.25324,-10.89638 0,-6.034325 -4.32897,-10.916502 -11.24409,-10.916502 -1.92087,0 -3.61634,0.40328 -5.09681,1.077925 l 11.36671,-17.746414 0.0183,-0.591121 -0.51608,-0.309286 z m -21.241889,9.679364 c 2.726693,0 4.432487,1.920719 4.432487,4.300719 0,2.38 -1.696424,4.30072 -4.432487,4.30072 -2.726692,0 -4.432486,-1.92072 -4.432486,-4.30072 10e-7,-2.38 1.705794,-4.300719 4.432486,-4.300719 z m 25.851899,14.496164 c 2.72669,0 4.43248,1.92072 4.43248,4.30072 0,2.38001 -1.7058,4.30072 -4.43248,4.30072 -2.73608,0 -4.44164,-1.9207 -4.44164,-4.30072 0,-2.37999 1.70556,-4.30072 4.44164,-4.30072 z" id="rect4"/>
  <path id="path18" style="fill:#ffffff;fill-opacity:1;stroke-width:0.94752157" d="m 79.248605,54.575018 c 0.701165,0.502186 1.478133,0.966472 2.274051,1.30758 4.339649,1.857142 9.513117,0.549562 13.322153,-1.932944 3.486879,-2.274052 7.144311,-6.661077 6.623171,-10.953349 0,-0.0095 0,-0.0095 0,-0.01895 l -0.2653,-19.282063 c 0.18003,-0.0095 0.34111,-0.0095 0.49271,-0.01895 1.44023,-0.0095 2.89942,0.104228 4.31122,0.379009 2.64359,0.521137 5.30612,1.553935 7.21064,3.515305 1.90452,1.942419 3.66691,3.865888 6.49052,4.37755 1.18441,0.208454 3.23105,-0.151604 3.97959,-1.184402 1.23178,-1.696064 -1.44023,-2.302478 -2.2551,-3.174198 -0.76749,-0.833818 -1.06122,-2.274051 -1.25072,-3.363701 -0.61589,-3.695334 -2.18878,-7.087461 -4.96502,-9.636294 -3.70481,-3.401602 -8.77405,-5.6851294 -14.20335,-6.6610766 -0.77696,-0.1421282 -1.677109,-0.1989795 -2.491977,-0.028426 -0.01895,0 -0.02843,-0.00948 -0.04738,-0.00948 -1.383382,0.01895 -2.482507,1.146501 -2.463556,2.5393576 l 0.360058,25.981041 c -1.54446,-0.824344 -3.278425,-1.317055 -5.078716,-1.506559 -4.500727,-0.464286 -9.389938,0.928571 -12.545185,3.714284 -1.061224,0.938047 -2.122448,2.169825 -2.757288,3.439503 -0.663265,1.30758 -1.203352,3.231049 -1.089649,4.709183 0.25583,3.079445 1.800291,6.007286 4.349124,7.807577 z"/>
  <path id="path20" style="fill:#ffffff;fill-opacity:1;stroke-width:0.87726092" d="m 32.071584,71.716081 c -14.588849,0 -25.1861603,10.325361 -25.1861603,24.554533 0,14.229176 10.5885393,24.563306 25.1861603,24.563306 5.912738,0 11.307893,-1.67557 15.606471,-4.84248 l -4.456485,-6.03556 c -3.000232,2.2107 -6.851408,3.37746 -11.158759,3.37746 -10.413086,0 -17.676807,-7.01809 -17.676807,-17.053954 0,-10.035864 7.272493,-17.045179 17.676807,-17.045179 13.036097,0 17.676807,9.149831 17.676807,17.703125 l 0.01755,0.298269 c 0.02632,0.412312 -0.05264,1.693113 -0.675491,2.596692 -0.140362,0.149134 -0.789535,0.508807 -1.605388,0.508807 -0.464948,0 -1.324664,-0.0965 -1.859793,-0.745668 -0.947441,-1.140439 -1.456253,-4.044172 -1.491343,-5.632014 h -0.04386 v -8.483113 c 0,-0.289496 -0.236861,-0.526357 -0.526357,-0.526357 h -6.360141 c -0.289496,0 -0.526357,0.236861 -0.526357,0.526357 v 0.657945 c -1.807157,-0.982532 -3.930129,-1.587842 -6.395232,-1.587842 -7.66726,0 -12.457105,5.4127 -12.457105,12.088655 0,6.684727 4.789845,12.097427 12.457105,12.097427 4.219625,0 7.518126,-1.66679 9.676188,-4.25471 1.824703,2.14051 4.552984,3.3599 7.535671,3.3599 3.140594,0 6.175917,-1.44748 7.746214,-3.69326 2.096653,-3.01778 2.087881,-6.386463 2.035245,-7.333905 C 57.213881,81.787036 47.099063,71.716081 32.071584,71.716081 Z m -1.789612,30.493589 c -3.544134,0 -5.763604,-2.500194 -5.763604,-5.596925 0,-3.087958 2.21947,-5.596924 5.763604,-5.596924 3.552906,0 5.763604,2.508966 5.763604,5.596924 0,3.096731 -2.210698,5.596925 -5.763604,5.596925 z"/>
</svg>

<?xml version="1.0" encoding="UTF-8" standalone="no"?>
<!DOCTYPE svg PUBLIC "-//W3C//DTD SVG 1.1//EN" "http://www.w3.org/Graphics/SVG/1.1/DTD/svg11.dtd">
<svg width="100%" height="100%" viewBox="0 0 128 128" version="1.1" xmlns="http://www.w3.org/2000/svg" xmlns:xlink="http://www.w3.org/1999/xlink" xml:space="preserve" xmlns:serif="http://www.serif.com/" style="fill-rule:evenodd;clip-rule:evenodd;stroke-linejoin:round;stroke-miterlimit:2;">
    <path d="M128,12.8C128,5.735 122.265,0 115.2,0L12.8,0C5.735,0 0,5.735 0,12.8L0,115.2C0,122.265 5.735,128 12.8,128L115.2,128C122.265,128 128,122.265 128,115.2L128,12.8Z" style="fill:rgb(28,97,146);"/>
    <path id="rect2" d="M10.891,11.51C10.481,11.51 10.15,11.84 10.15,12.24L10.15,20.83C10.15,21.23 10.491,21.551 10.891,21.551L53.26,21.551C53.67,21.551 53.99,21.23 53.99,20.83L54,20.83L54,12.24C54,11.83 53.67,11.51 53.27,11.51L10.891,11.51ZM10.891,28.85C10.481,28.85 10.15,29.18 10.15,29.58L10.15,38.17C10.15,38.58 10.491,38.9 10.891,38.9L26.721,38.9L26.721,55.939C26.721,56.349 27.049,56.67 27.449,56.67L36.711,56.67C37.111,56.67 37.439,56.339 37.439,55.939L37.439,38.9L53.26,38.9C53.67,38.9 53.99,38.57 53.99,38.17L54,38.17L54,29.58C54,29.17 53.67,28.85 53.27,28.85L10.891,28.85Z" style="fill:white;fill-rule:nonzero;"/>
    <path id="rect4" d="M104.631,77.106L104.135,77.368L94.549,92.023C94.577,91.704 94.633,91.405 94.633,91.086C94.633,85.052 90.313,80.17 83.389,80.17C76.474,80.17 72.145,85.052 72.145,91.086C72.145,97.111 76.474,101.993 83.389,101.993C85.478,101.993 87.287,101.506 88.852,100.729L78.508,116.535L78.479,117.136L78.995,117.445L89.911,117.445L90.407,117.172L98.017,105.3C98.017,105.394 97.987,105.479 97.987,105.573C97.987,111.607 102.316,116.488 109.241,116.488C116.156,116.488 120.485,111.607 120.494,105.591C120.494,99.557 116.165,94.675 109.25,94.675C107.329,94.675 105.634,95.078 104.153,95.753L115.52,78.006L115.538,77.415L115.022,77.106L104.631,77.106ZM83.389,86.785C86.116,86.785 87.821,88.706 87.821,91.086C87.821,93.466 86.125,95.387 83.389,95.387C80.662,95.387 78.956,93.466 78.956,91.086C78.956,88.706 80.662,86.785 83.389,86.785ZM109.241,101.281C111.967,101.281 113.673,103.202 113.673,105.582C113.673,107.962 111.967,109.883 109.241,109.883C106.505,109.883 104.799,107.962 104.799,105.582C104.799,103.202 106.505,101.281 109.241,101.281Z" style="fill:white;fill-rule:nonzero;"/>
    <path id="path18" d="M79.249,54.575C79.95,55.077 80.727,55.541 81.523,55.883C85.862,57.74 91.036,56.432 94.845,53.95C98.332,51.676 101.989,47.289 101.468,42.996L101.468,42.977L101.203,23.695C101.383,23.686 101.544,23.686 101.695,23.676C103.136,23.667 104.595,23.781 106.007,24.055C108.65,24.576 111.313,25.609 113.217,27.571C115.122,29.513 116.884,31.437 119.708,31.948C120.892,32.157 122.939,31.797 123.687,30.764C124.919,29.068 122.247,28.461 121.432,27.59C120.665,26.756 120.371,25.316 120.182,24.226C119.566,20.531 117.993,17.138 115.217,14.59C111.512,11.188 106.442,8.904 101.013,7.929C100.236,7.786 99.336,7.73 98.521,7.9C98.502,7.9 98.493,7.891 98.474,7.891C97.09,7.91 95.991,9.037 96.01,10.43L96.37,36.411C94.826,35.587 93.092,35.094 91.292,34.904C86.791,34.44 81.902,35.833 78.746,38.619C77.685,39.557 76.624,40.789 75.989,42.058C75.326,43.366 74.786,45.289 74.899,46.767C75.155,49.847 76.7,52.775 79.249,54.575L79.249,54.575Z" style="fill:white;fill-rule:nonzero;"/>
    <path id="path20" d="M32.072,71.716C17.483,71.716 6.885,82.041 6.885,96.271C6.885,110.5 17.474,120.834 32.072,120.834C37.984,120.834 43.379,119.158 47.678,115.991L43.222,109.956C40.221,112.167 36.37,113.333 32.063,113.333C21.65,113.333 14.386,106.315 14.386,96.279C14.386,86.244 21.658,79.234 32.063,79.234C45.099,79.234 49.74,88.384 49.74,96.937L49.757,97.236C49.783,97.648 49.705,98.929 49.082,99.832C48.941,99.981 48.292,100.341 47.476,100.341C47.011,100.341 46.152,100.245 45.616,99.595C44.669,98.455 44.16,95.551 44.125,93.963L44.081,93.963L44.081,85.48C44.081,85.191 43.844,84.954 43.555,84.954L37.195,84.954C36.905,84.954 36.668,85.191 36.668,85.48L36.668,86.138C34.861,85.156 32.738,84.55 30.273,84.55C22.606,84.55 17.816,89.963 17.816,96.639C17.816,103.324 22.606,108.736 30.273,108.736C34.493,108.736 37.791,107.07 39.949,104.482C41.774,106.622 44.502,107.842 47.485,107.842C50.626,107.842 53.661,106.394 55.231,104.148C57.328,101.131 57.319,97.762 57.267,96.815C57.214,81.787 47.099,71.716 32.072,71.716ZM30.282,102.21C26.738,102.21 24.518,99.709 24.518,96.613C24.518,93.525 26.738,91.016 30.282,91.016C33.835,91.016 36.046,93.525 36.046,96.613C36.046,99.709 33.835,102.21 30.282,102.21Z" style="fill:white;fill-rule:nonzero;"/>
</svg>
